X:1
T:Title
T:Amazing Grace 
T: Violino 2
C:Composer
L:1/8
M:3/4
K:G
V:1 treble nm="Piano" snm="Pno."
V:1
 D4 G2 | G4 (3BAG | B4 e2 | d4 G2 | G2 D2 B,2 | G4 F2 | D4 G2 | G4 G2 | G4 G2 | G2 F4 | D2- DD EG | %11
 G4 D2 || z2 D2 D2 | z2 G2 F2 | z2 E2 C2 | z2 B,2 z2 | z2 D2 D2 | z2 G2 F2 | B2 E2 FG | A2 G2 F2 | %20
 B4 F2 | z2 D2 B,2 | C6 | z2 B,2 D2 | z2 E2 G2 | G2 E2 EF | D2 GD BA | G6 |] %28

